X:2
T:Kaz a barh 2
G:Kazimodal
R:Kaz a barh
C:Traditionnel Vannetais, arrangement Ronan Keryell http://kazimodal.trad.org
% Originellement 112
Q:1/4=104
P:B4
M:4/4
S:Tonioù Breizh-Izel 1797 (Karnag), livre vert p. ?
K:G
P:B
%%MIDI ratio 3 1
%%%%MIDI program 109
%%MIDI gchord fcfzcfcz
% Velocity: accent (127) on first note, strong (100) on third (2*k beat)
%%MIDI beat 127 100 70 2
%%MIDI chordprog 105
%%MIDI chordvol 60
%%MIDI bassprog 32
%%MIDI bassvol 127
|: "G"GB/c/ "Bm"d>B "C"c/B/c/e/ "G"dB |1 \
  "C"c/B/A/B/ "G"GB/d/ "Am"c/c/B/A/ "D"BA :|2 \
  "C"c/B/A/B/ "G"G>B "D"A/G/F/A/ "G"G2 ||
|: "G"G/G/B/c/ "Bm"dd/B/ "C"ee/c/ "G"dd/B/ |1 \
  "C"c/B/A/B/ "G"GB/c/ "D"d/c/B/c/ A2 :|2 \
  "C"c/B/A/B/ "G"Gd "D"e/d/e/f/ "G"g2||

